icons/arrow-bar-in-up.svg

<svg xmlns="http://www.w3.org/2000/svg" width="24" height="24" viewBox="0 0 24 24">
  <path d="M11.375,6.219 L11.367,6.225 L11.374551,6.21968877 L11.376,6.218 L11.4182204,6.1864634 L11.4182204,6.1864634 C11.4377852,6.17252629 11.4583066,6.15891923 11.4793398,6.14606743 C11.4928304,6.13772719 11.5064305,6.12986112 11.5201698,6.12234168 C11.5371537,6.1131069 11.5549095,6.1040443 11.5729619,6.09550623 C11.5932325,6.08591191 11.613165,6.07731015 11.6333026,6.06938695 C11.6508514,6.06244532 11.6689468,6.0559003 11.6872762,6.04987089 C11.7025958,6.04489522 11.7182588,6.04017413 11.734007,6.03584514 C11.7555635,6.02983363 11.7772539,6.0246398 11.7992059,6.02016515 C11.8166247,6.01670217 11.834051,6.01362808 11.8515331,6.0110178 C11.8705796,6.00810098 11.8903051,6.00574796 11.9101982,6.00397748 L11.9409686,6.0017331 L11.9409686,6.0017331 L11.9806591,6.0001833 L12,6 L12,6 L12.0181458,6.001 L12.029,6.001 L12.081,6.003 L12.1489612,6.01101934 L12.1489612,6.01101934 C12.1661068,6.01365592 12.1834538,6.01671819 12.2007258,6.02024007 C12.2227461,6.0246398 12.2444365,6.02983363 12.2658396,6.03572097 C12.2814633,6.04009773 12.2968513,6.04472872 12.3121425,6.04973809 C12.3317977,6.05612249 12.3515792,6.06331574 12.3710585,6.07110396 L12.4232215,6.09367336 L12.4232215,6.09367336 C12.4419547,6.10247102 12.4604898,6.11185933 12.4786822,6.12179647 C12.4935488,6.12981337 12.5087703,6.13863517 12.5238,6.14789148 C12.5456983,6.16150681 12.5664533,6.17541687 12.5866395,6.19006311 C12.5953343,6.19627953 12.6041603,6.2029095 12.6128994,6.20970461 C12.6197272,6.21512226 12.6225945,6.21739784 12.625449,6.21968877 L12.7071068,6.29289322 L18.363961,11.9497475 C18.7544853,12.3402718 18.7544853,12.9734367 18.363961,13.363961 C18.0034771,13.724445 17.436246,13.7521745 17.0439548,13.4471496 L16.9497475,13.363961 L12.9991458,9.414 L13,21 C13,21.5522847 12.5522847,22 12,22 C11.4871642,22 11.0644928,21.6139598 11.0067277,21.1166211 L11,21 L10.9991458,9.414 L7.05025253,13.363961 C6.65972824,13.7544853 6.02656326,13.7544853 5.63603897,13.363961 C5.27555501,13.0034771 5.24782547,12.436246 5.55285036,12.0439548 L5.63603897,11.9497475 L11.2928932,6.29289322 L11.3538862,6.2366872 L11.3538862,6.2366872 L11.367,6.225 L11.355,6.236 L11.375,6.219 Z M21,2 C21.5522847,2 22,2.44771525 22,3 C22,3.51283584 21.6139598,3.93550716 21.1166211,3.99327227 L21,4 L3,4 C2.44771525,4 2,3.55228475 2,3 C2,2.48716416 2.38604019,2.06449284 2.88337887,2.00672773 L3,2 L21,2 Z"/>
</svg>

<svg xmlns="http://www.w3.org/2000/svg" viewBox="0 0 24 24">
  <path d="M11.38 6.22h-.01l.05-.03A1.04 1.04 0 0 1 11.9 6h.17l.07.01a1.09 1.09 0 0 1 .22.06l.05.02a1.02 1.02 0 0 1 .2.13l.09.07 5.65 5.66a1 1 0 0 1-1.32 1.5l-.09-.09L13 9.41V21a1 1 0 0 1-2 .12V9.4l-3.95 3.95a1 1 0 0 1-1.5-1.32l.09-.09 5.65-5.66.06-.05.02-.02-.01.02.02-.02zM21 2a1 1 0 0 1 .12 2H3a1 1 0 0 1-.12-2H21z"/>
</svg>
